X:1
T:The Fox on the Prowl
R:reel
M:4/4
L:1/8
K:D
|d2 fd eA ~A2|BAFA BAFA|ABde f3 d|g2fg effe|
d2fd eA ~A2|BAFA BAFG|ABde ~f3 g|edef d3 c:||
|faaf d3e|f2af eA ~A2|BAFA ABdf|b2af g~e3|
bf ~f2 afef|defd e2 dA|FAAF ABdf|edef d3 e:|]
